X:0005
T:The Lady's play thing, or Gen Howe's March.
M:6/8
L:1/8
Q:3/8=120
I: :: ::
%% D  G  A  B  c  d  e  g
N:last note printed as G3
Z:Jack Campin * www.campin.me.uk * 2009
K:G
d/c/|B2B Bcd|A2A A2d|G2G GAB|B3  A2
e   |dgd BdB|GBG Ddc|BcB AGA|G2G G2:|
d   |dBd dBd|e2e e2c|cAc cAc|d2d d2
c   |BGB BGB|c2c cBA|Bcd dcB|B3  A2
e   |dgd BdB|GBG Ddc|BcB AGA|G2G G2:|
<end>
<start>
